X: 26232
T: Meelick Team, The
R: jig
M: 6/8
K: Edorian
|:A|Be/f/d BAB|AGE D[B,DEB]D|EGE edB|AGA B2 d|
e/f/ge dBA|BAG ED[B,DEB]|DEG Eed|1 BAF E2:|2 BAF E3||
|:e/f/ef ged|beg fed|Beg beg|fed e/f/ef|
g2 f edB|AFD DFA|dcd fed|1 BAF E3:|2 BAF E2||

